X:182
T:Deus in adjutorium
C:Manuscript de Montpellier (XIIIe siècle)
R:Conduit
M:3/4
L:1/8
Q:1/4=176
K:G
V:1
g2f ed2 | efg4 | a2g4 | g2f2e2 | 
f6 | z6 | g2g4 | f2e2d2 | 
c2B2A2 | B2c4 | d6 | z6 | 
G2c de2 | d2B4 | c2B AG2 | c6 | 
d6 | z6 | g2g fe2 | f2f ed2 | 
e2c4 | ede2f2 | g6- | g6 |]
V:2
d2e fg2 | f2e2d2 | e2c4 | d2e2d2 | 
B6 | z6 | d2c4 | B2A2G2 | 
c2B4 | A6 | G6 | z6 | 
c2c BA2 | G2B4 | c2d4 | c2B2A2 | 
G6 | z6 | G2G2A2 | B2c2d2 | 
e2=f4 | e2d2c2 | d6- | d6 |]
V:3 clef=treble
G,2G,4 | G,2G,4 | A,B,C4 | C2B,2A,2 | 
B,6 | z6 | G,2G,4 | B,2D4 | 
C2=F4 | EDE2^F2 | G6 | z6 | 
G2C DE2 | D2B,4 | C2B, A,G,2 | C6 | 
D6 | z6 | C2C B,A,2 | B,2B, A,G,2 | 
A,2=F,4 | A,2B,2A,2 | G,6- | G,6|]





